tools/download-figma-icons/icons/outlined-large/person.svg

<svg width="64" height="64" viewBox="0 0 64 64" fill="none" xmlns="http://www.w3.org/2000/svg">
<path fill-rule="evenodd" clip-rule="evenodd" d="M23.4641 36.1106C16.8641 40.0436 12.8541 47.8206 13.0051 56.1966H51.9071C52.0591 47.8086 48.0411 40.0326 41.4281 36.1116C41.1461 35.9656 40.8631 35.8246 40.5841 35.6906C40.0851 35.9786 39.5651 36.2546 39.0081 36.4996C36.9461 37.4076 34.7491 37.8686 32.4781 37.8686C30.1841 37.8686 27.9911 37.4066 25.9601 36.4946C25.3571 36.2286 24.7911 35.9246 24.2461 35.6026C23.8341 35.8446 23.6091 36.0116 23.6061 36.0146C23.5631 36.0476 23.5121 36.0826 23.4641 36.1106ZM32.4781 8.00061C25.1061 8.00061 19.1091 14.0266 19.1091 21.4336C19.1091 25.8496 21.2611 29.9346 24.8631 32.4326C24.9841 32.4766 25.1001 32.5346 25.2081 32.6096C25.8211 33.0356 26.5121 33.4216 27.2631 33.7566C28.6961 34.4076 30.2601 34.7566 31.8431 34.8326C32.3061 34.8536 32.7701 34.8506 33.2341 34.8246C34.7681 34.7346 36.2941 34.3906 37.7131 33.7576C38.3981 33.4506 39.0311 33.1036 39.5961 32.7256C39.7021 32.6546 39.8151 32.5976 39.9331 32.5566C43.6391 30.0546 45.8461 25.9256 45.8461 21.4336C45.8461 14.0266 39.8491 8.00061 32.4781 8.00061ZM48.8461 21.4336C48.8461 26.2166 46.8041 30.6656 43.2941 33.7546C51.0571 38.5826 55.5551 47.9436 54.8361 57.8056C54.7781 58.5906 54.1261 59.1966 53.3391 59.1966H11.5721C10.7861 59.1966 10.1331 58.5906 10.0761 57.8056C9.35513 47.9126 13.8861 38.5076 21.6351 33.7216C18.1481 30.6456 16.1091 26.1926 16.1091 21.4336C16.1091 12.3726 23.4521 5.00061 32.4781 5.00061C41.5041 5.00061 48.8461 12.3726 48.8461 21.4336ZM26.0369 25.7464C26.6239 25.1604 27.5739 25.1604 28.1589 25.7464C28.7599 26.3484 29.4509 26.8014 30.2159 27.0954C32.4759 27.9924 35.0429 27.4484 36.7689 25.7244C37.3549 25.1384 38.3049 25.1384 38.8899 25.7244C39.4759 26.3094 39.4759 27.2594 38.8899 27.8454C37.1419 29.5924 34.8119 30.5224 32.4439 30.5224C31.3269 30.5224 30.2029 30.3154 29.1259 29.8904C27.9799 29.4494 26.9359 28.7674 26.0369 27.8674C25.4509 27.2814 25.4509 26.3314 26.0369 25.7464ZM24.1233 20.5159C24.5073 20.5159 24.8913 20.3699 25.1843 20.0769C25.8653 19.3939 26.8773 19.1799 27.7753 19.5369C28.0713 19.6499 28.3423 19.8279 28.5793 20.0649C29.1653 20.6499 30.1153 20.6499 30.7003 20.0629C31.2863 19.4769 31.2853 18.5279 30.6993 17.9419C30.1633 17.4069 29.5413 17.0009 28.8653 16.7419C26.8683 15.9509 24.5903 16.4269 23.0623 17.9549C22.4773 18.5409 22.4773 19.4919 23.0623 20.0769C23.3553 20.3699 23.7393 20.5159 24.1233 20.5159ZM36.238 20.0769C35.945 20.3699 35.561 20.5159 35.177 20.5159C34.793 20.5159 34.409 20.3699 34.116 20.0769C33.531 19.4919 33.531 18.5409 34.116 17.9549C35.644 16.4269 37.922 15.9509 39.919 16.7419C40.595 17.0009 41.217 17.4069 41.753 17.9419C42.339 18.5279 42.34 19.4769 41.754 20.0629C41.169 20.6499 40.219 20.6499 39.633 20.0649C39.396 19.8279 39.125 19.6499 38.829 19.5369C37.931 19.1799 36.919 19.3939 36.238 20.0769Z" fill="black"/>
</svg>

<svg width="64" height="64" viewBox="0 0 64 64" fill="none" xmlns="http://www.w3.org/2000/svg"><path fill-rule="evenodd" clip-rule="evenodd" d="M23.464 36.11c-6.6 3.934-10.61 11.71-10.459 20.087h38.902c.152-8.388-3.866-16.164-10.479-20.085a31.549 31.549 0 0 0-.844-.421c-.499.288-1.019.564-1.576.809a16.103 16.103 0 0 1-6.53 1.369c-2.294 0-4.487-.462-6.518-1.374a16.29 16.29 0 0 1-1.714-.892 7.404 7.404 0 0 0-.64.412 1.412 1.412 0 0 1-.142.096ZM32.478 8C25.106 8 19.11 14.028 19.11 21.435c0 4.416 2.152 8.5 5.754 10.999.121.044.237.102.345.177.613.426 1.304.812 2.055 1.147 1.433.65 2.997 1 4.58 1.076.463.02.927.018 1.391-.008a12.84 12.84 0 0 0 4.48-1.067 12.829 12.829 0 0 0 1.882-1.032c.106-.071.22-.128.337-.17a13.363 13.363 0 0 0 5.913-11.122C45.846 14.027 39.85 8 32.478 8Zm16.368 13.434c0 4.783-2.042 9.232-5.552 12.32 7.763 4.829 12.261 14.19 11.542 24.052a1.5 1.5 0 0 1-1.497 1.39H11.572a1.5 1.5 0 0 1-1.496-1.39c-.72-9.893 3.81-19.298 11.56-24.084a16.36 16.36 0 0 1-5.527-12.288C16.11 12.373 23.452 5 32.48 5c9.025 0 16.367 7.372 16.367 16.433Zm-22.81 4.312a1.5 1.5 0 0 1 2.123 0 5.87 5.87 0 0 0 2.057 1.35 6.087 6.087 0 0 0 6.553-1.372 1.5 1.5 0 1 1 2.12 2.121 9.118 9.118 0 0 1-6.445 2.677 9.027 9.027 0 0 1-3.318-.632 8.848 8.848 0 0 1-3.09-2.023 1.5 1.5 0 0 1 0-2.12Zm-1.913-5.23c.384 0 .768-.146 1.061-.44a2.397 2.397 0 0 1 3.395-.011 1.5 1.5 0 1 0 2.12-2.123 5.262 5.262 0 0 0-1.834-1.2 5.395 5.395 0 0 0-5.803 1.213 1.502 1.502 0 0 0 1.061 2.56Zm12.115-.44a1.495 1.495 0 0 1-1.061.44 1.502 1.502 0 0 1-1.061-2.561 5.395 5.395 0 0 1 5.803-1.213 5.262 5.262 0 0 1 1.834 1.2 1.5 1.5 0 1 1-2.12 2.123 2.397 2.397 0 0 0-3.395.012Z" fill="currentColor"/></svg>
